X: 1
T: Fiddlehead Reel
C: Bill Spence
R: reel
Z: 1997 by John Chambers <jc:trillian.mit.edu>
M: C|
L: 1/8
K: D
|: A,2 \
| "D"D4 D2DD | FDFA d2AB/c/ | d2A2 F2D2 | "G"G2E2 "A7"C2A,2 \
| "D"D4 D2DD | FDFA d4 | "A7"A,2C2 EFGE | "D"F2D2 D2 :|
|: AB/c/ \
| "D"d4 d2AB/c/ | d2A2 F2D2 | FAdA FAdA | "A7"F2E2 E2A2 \
| "D"d4 d2AB/c/ | d2A2 F2D2 | "A7"A,B,CD EFGE | "D"F2D2 D2 :|
